X:1
T:Bugle Hornpipe
R:Hornpipe
S:Gary Hastings, Ceird an Cheoil
S:http://www.youtube.com/watch?v=RuVWT_r-Dew
Z:MTGuru for Chiff & Fipple
M:4/4
K:AMix
ed|c2A2 ABcA|dBBA Beed|c2AG ABcA|BGGF G2ed|
c2A2 ABcA|d2BA Beed|c2e2 dBGB|A4 A2ed||
c2A2 ABcA|dBBA Beed|cAAG ABcA|BGGF G2ed|
c2A2 ABcA|d2BA Beed|c2e2 dBGB|A4 A3|]
A|ABcd e2zf|g2gd e2e2|ABcd e2e2|dgdB G3B|
ABcd e2zf|g2gd e2ed|c2e2 dBGB|1 A4 A3:|2 A4 A2|]

